apps/64/multimedia-audio-player.svg

<?xml version="1.0" encoding="UTF-8" standalone="no"?>
<svg
   xmlns:dc="http://purl.org/dc/elements/1.1/"
   xmlns:cc="http://creativecommons.org/ns#"
   xmlns:rdf="http://www.w3.org/1999/02/22-rdf-syntax-ns#"
   xmlns:svg="http://www.w3.org/2000/svg"
   xmlns="http://www.w3.org/2000/svg"
   xmlns:xlink="http://www.w3.org/1999/xlink"
   version="1.1"
   width="64"
   height="64"
   id="svg6333">
  <defs
     id="defs6335">
    <linearGradient
       id="linearGradient872">
      <stop
         style="stop-color:#ffa154;stop-opacity:1"
         offset="0"
         id="stop868" />
      <stop
         style="stop-color:#f37329;stop-opacity:1"
         offset="1"
         id="stop870" />
    </linearGradient>
    <linearGradient
       x1="23.99999"
       y1="4.999989"
       x2="23.99999"
       y2="43"
       id="linearGradient3381-5-4"
       xlink:href="#linearGradient3924-2-2-5-8"
       gradientUnits="userSpaceOnUse"
       gradientTransform="matrix(1.4324324,0,0,1.4362832,-2.378381,-2.4707782)" />
    <linearGradient
       id="linearGradient3924-2-2-5-8">
      <stop
         id="stop3926-9-4-9-6"
         style="stop-color:#ffffff;stop-opacity:1"
         offset="0" />
      <stop
         id="stop3928-9-8-6-5"
         style="stop-color:#ffffff;stop-opacity:0.23529412"
         offset="0.06316455" />
      <stop
         id="stop3930-3-5-1-7"
         style="stop-color:#ffffff;stop-opacity:0.15686275"
         offset="0.95056331" />
      <stop
         id="stop3932-8-0-4-8"
         style="stop-color:#ffffff;stop-opacity:0.39215687"
         offset="1" />
    </linearGradient>
    <radialGradient
       cx="4.9929786"
       cy="43.5"
       r="2.5"
       fx="4.9929786"
       fy="43.5"
       id="radialGradient3337-2-2"
       xlink:href="#linearGradient3688-166-749-4-0-3-8"
       gradientUnits="userSpaceOnUse"
       gradientTransform="matrix(2.003784,0,0,1.4,27.98813,-17.4)" />
    <linearGradient
       id="linearGradient3688-166-749-4-0-3-8">
      <stop
         id="stop2883-4-0-1-8"
         style="stop-color:#181818;stop-opacity:1"
         offset="0" />
      <stop
         id="stop2885-9-2-9-6"
         style="stop-color:#181818;stop-opacity:0"
         offset="1" />
    </linearGradient>
    <radialGradient
       cx="4.9929786"
       cy="43.5"
       r="2.5"
       fx="4.9929786"
       fy="43.5"
       id="radialGradient3339-1-4"
       xlink:href="#linearGradient3688-464-309-9-2-4-2"
       gradientUnits="userSpaceOnUse"
       gradientTransform="matrix(2.003784,0,0,1.4,-20.01187,-104.4)" />
    <linearGradient
       id="linearGradient3688-464-309-9-2-4-2">
      <stop
         id="stop2889-7-9-6-9"
         style="stop-color:#181818;stop-opacity:1"
         offset="0" />
      <stop
         id="stop2891-6-6-1-7"
         style="stop-color:#181818;stop-opacity:0"
         offset="1" />
    </linearGradient>
    <linearGradient
       id="linearGradient3702-501-757-8-4-1-1">
      <stop
         id="stop2895-8-9-9-1"
         style="stop-color:#181818;stop-opacity:0"
         offset="0" />
      <stop
         id="stop2897-7-8-7-7"
         style="stop-color:#181818;stop-opacity:1"
         offset="0.5" />
      <stop
         id="stop2899-4-5-1-5"
         style="stop-color:#181818;stop-opacity:0"
         offset="1" />
    </linearGradient>
    <linearGradient
       x1="25.058096"
       y1="47.027729"
       x2="25.058096"
       y2="39.999443"
       id="linearGradient6394"
       xlink:href="#linearGradient3702-501-757-8-4-1-1"
       gradientUnits="userSpaceOnUse" />
    <linearGradient
       xlink:href="#linearGradient872"
       id="linearGradient856-2-3"
       x1="23.528315"
       y1="6.08318"
       x2="23.528315"
       y2="44.23307"
       gradientUnits="userSpaceOnUse"
       gradientTransform="matrix(1.4102564,0,0,1.4102564,-1.8461748,-3.2564048)" />
  </defs>
  <metadata
     id="metadata6338">
    <rdf:RDF>
      <cc:Work
         rdf:about="">
        <dc:format>image/svg+xml</dc:format>
        <dc:type
           rdf:resource="http://purl.org/dc/dcmitype/StillImage" />
        <dc:title></dc:title>
      </cc:Work>
    </rdf:RDF>
  </metadata>
  <g
     style="opacity:0.6"
     id="g3712-8-2-4-4"
     transform="matrix(1.5789502,0,0,0.7142857,-5.894751,27.928572)">
    <rect
       style="fill:url(#radialGradient3337-2-2);fill-opacity:1;stroke:none"
       id="rect2801-5-5-7-9"
       y="40"
       x="38"
       height="7"
       width="5" />
    <rect
       style="fill:url(#radialGradient3339-1-4);fill-opacity:1;stroke:none"
       id="rect3696-3-0-3-7"
       transform="scale(-1)"
       y="-47"
       x="-10"
       height="7"
       width="5" />
    <rect
       style="fill:url(#linearGradient6394);fill-opacity:1;stroke:none"
       id="rect3700-5-6-8-4"
       y="40"
       x="10"
       height="7.0000005"
       width="28" />
  </g>
  <rect
     style="color:#000000;display:inline;overflow:visible;visibility:visible;opacity:1;fill:url(#linearGradient856-2-3);fill-opacity:1;fill-rule:nonzero;stroke:#a62100;stroke-width:1;stroke-opacity:0.5;marker:none;enable-background:accumulate"
     id="rect5505-21-1-5"
     y="4.5000019"
     x="4.4999986"
     ry="6"
     rx="6"
     height="55"
     width="55" />
  <rect
     style="opacity:0.5;fill:none;stroke:url(#linearGradient3381-5-4);stroke-width:1;stroke-linecap:round;stroke-linejoin:round;stroke-miterlimit:4;stroke-dasharray:none;stroke-dashoffset:0;stroke-opacity:1"
     id="rect6741-5-0-2-3"
     y="5.4287739"
     x="5.4999986"
     ry="5"
     height="53.142479"
     width="53"
     rx="5" />
  <path
     id="path16590-0-7-9"
     style="color:#000000;font-variation-settings:normal;clip-rule:nonzero;display:inline;overflow:visible;visibility:visible;opacity:0.15;isolation:auto;mix-blend-mode:normal;color-interpolation:sRGB;color-interpolation-filters:linearRGB;solid-color:#000000;solid-opacity:1;vector-effect:none;fill:#a62100;fill-opacity:1;fill-rule:nonzero;stroke:none;stroke-width:1;stroke-linecap:butt;stroke-linejoin:miter;stroke-miterlimit:4;stroke-dasharray:none;stroke-dashoffset:0;stroke-opacity:1;marker:none;color-rendering:auto;image-rendering:auto;shape-rendering:auto;text-rendering:auto;enable-background:accumulate;stop-color:#000000;stop-opacity:1"
     d="m 42.736328,16 a 1.0005761,1.0005761 0 0 0 -0.248047,0.03125 l -14.742187,3.810547 a 1.0005761,1.0005761 0 0 0 -0.0098,0.002 c -1.618311,0.43361 -2.738281,1.925232 -2.738281,3.589844 v 18.839844 c -1.034796,-0.260895 -2.140356,-0.370965 -3.3125,-0.06641 -1.553814,0.40373 -2.842919,1.259904 -3.681641,2.376953 -0.838722,1.11705 -1.222323,2.54082 -0.841797,3.917969 0.76241,2.759216 4.035629,4.072984 7.150391,3.263672 2.488817,-0.646665 4.305404,-2.481349 4.611328,-4.638672 a 1.0005761,1.0005761 0 0 0 0.0098,-0.136719 l 0.06055,-18.416015 11.99414,-3.210938 v 12.91211 c -1.034795,-0.260895 -2.140355,-0.370965 -3.3125,-0.06641 -1.553814,0.403729 -2.842919,1.259904 -3.68164,2.376954 -0.838722,1.117049 -1.222323,2.540819 -0.841797,3.917968 0.762574,2.759767 4.037468,4.073013 7.152344,3.263672 2.488817,-0.646665 4.305403,-2.481349 4.611328,-4.638672 a 1.0005761,1.0005761 0 0 0 0.0098,-0.138672 l 0.0625,-24.363281 a 1.0005761,1.0005761 0 0 0 0,-0.002 c 0,-1.272575 -0.872055,-2.407146 -2.083984,-2.611328 A 1.0005761,1.0005761 0 0 0 42.736328,16 Z" />
  <path
     d="m 42.738661,17 -14.74243,3.810544 c -1.10744,0.296727 -1.99898,1.477162 -1.99898,2.623653 v 20.178645 c -1.12296,-0.588018 -2.5652,-0.825776 -4.06041,-0.437276 -2.69814,0.701061 -4.388911,2.966778 -3.81055,5.059903 0.57836,2.093126 3.23632,3.262246 5.93446,2.561185 2.15255,-0.559293 3.63637,-2.1418 3.87301,-3.810544 l 0.0624,-19.179158 13.99281,-3.748076 v 15.556018 c -1.12296,-0.588018 -2.5652,-0.825776 -4.06041,-0.437275 -2.69814,0.70106 -4.38891,2.966777 -3.81055,5.059902 0.57837,2.093126 3.23632,3.262246 5.93446,2.561186 2.15255,-0.559293 3.63637,-2.141801 3.87301,-3.810544 l 0.0624,-24.363997 c 0,-0.859879 -0.53141,-1.503208 -1.24936,-1.624166 z"
     id="path16590-0-7"
     style="color:#000000;font-variation-settings:normal;clip-rule:nonzero;display:inline;overflow:visible;visibility:visible;opacity:0.3;isolation:auto;mix-blend-mode:normal;color-interpolation:sRGB;color-interpolation-filters:linearRGB;solid-color:#000000;solid-opacity:1;vector-effect:none;fill:#a62100;fill-opacity:1;fill-rule:nonzero;stroke:none;stroke-width:1;stroke-linecap:butt;stroke-linejoin:miter;stroke-miterlimit:4;stroke-dasharray:none;stroke-dashoffset:0;stroke-opacity:1;marker:none;color-rendering:auto;image-rendering:auto;shape-rendering:auto;text-rendering:auto;enable-background:accumulate;stop-color:#000000;stop-opacity:1" />
  <path
     d="m 42.738661,15.999524 -14.74243,3.810544 c -1.10744,0.296727 -1.99898,1.477162 -1.99898,2.623653 v 20.178645 c -1.12296,-0.588018 -2.5652,-0.825776 -4.06041,-0.437276 -2.69814,0.701061 -4.388911,2.966778 -3.81055,5.059903 0.57836,2.093126 3.23632,3.262246 5.93446,2.561185 2.15255,-0.559293 3.63637,-2.1418 3.87301,-3.810544 l 0.0624,-19.179158 13.99281,-3.748076 v 15.556018 c -1.12296,-0.588018 -2.5652,-0.825776 -4.06041,-0.437275 -2.69814,0.70106 -4.38891,2.966777 -3.81055,5.059902 0.57837,2.093126 3.23632,3.262246 5.93446,2.561186 2.15255,-0.559293 3.63637,-2.141801 3.87301,-3.810544 l 0.0624,-24.363997 c 0,-0.859879 -0.53141,-1.503208 -1.24936,-1.624166 z"
     id="path16590-0"
     style="color:#000000;clip-rule:nonzero;display:inline;overflow:visible;visibility:visible;opacity:1;isolation:auto;mix-blend-mode:normal;color-interpolation:sRGB;color-interpolation-filters:linearRGB;solid-color:#000000;solid-opacity:1;fill:#ffffff;fill-opacity:1;fill-rule:nonzero;stroke:none;stroke-width:1;stroke-linecap:butt;stroke-linejoin:miter;stroke-miterlimit:4;stroke-dasharray:none;stroke-dashoffset:0;stroke-opacity:1;marker:none;color-rendering:auto;image-rendering:auto;shape-rendering:auto;text-rendering:auto;enable-background:accumulate;font-variation-settings:normal;vector-effect:none;stop-color:#000000;stop-opacity:1" />
  <path
     id="path16590-0-6"
     style="color:#000000;font-variation-settings:normal;clip-rule:nonzero;display:inline;overflow:visible;visibility:visible;opacity:0.07;isolation:auto;mix-blend-mode:normal;color-interpolation:sRGB;color-interpolation-filters:linearRGB;solid-color:#000000;solid-opacity:1;vector-effect:none;fill:#a62100;fill-opacity:1;fill-rule:nonzero;stroke:none;stroke-width:1;stroke-linecap:butt;stroke-linejoin:miter;stroke-miterlimit:4;stroke-dasharray:none;stroke-dashoffset:0;stroke-opacity:1;marker:none;color-rendering:auto;image-rendering:auto;shape-rendering:auto;text-rendering:auto;enable-background:accumulate;stop-color:#000000;stop-opacity:1"
     d="m 39.992072,21.629975 -10.004054,2.678174 c -1.170051,0.319199 -1.991924,1.245301 -1.991924,2.498492 l 13.992187,-3.748047 c 0,-1.201122 -1.091814,-1.67874 -1.996209,-1.428619 z m 3.935662,19.805572 c -0.827277,1.090662 -2.096677,1.935437 -3.623046,2.332031 -2.405979,0.625148 -4.902186,-0.02112 -6.267579,-1.617187 -0.02858,0.361914 -0.01955,0.725386 0.08008,1.085937 0.578369,2.093126 3.237406,3.26356 5.935546,2.5625 2.15255,-0.559293 3.636407,-2.141804 3.873047,-3.810547 z m -15.992187,3.996094 c -0.827254,1.09123 -2.096131,1.937248 -3.623047,2.333984 -2.40606,0.625169 -4.902785,-0.02098 -6.267578,-1.617187 -0.02858,0.361914 -0.0176,0.725385 0.08203,1.085937 0.57836,2.093126 3.235454,3.263561 5.933594,2.5625 2.15255,-0.559293 3.636407,-2.141803 3.873047,-3.810547 z" />
  <path
     id="path16590-0-2"
     style="color:#000000;font-variation-settings:normal;clip-rule:nonzero;display:inline;overflow:visible;visibility:visible;opacity:0.15;isolation:auto;mix-blend-mode:normal;color-interpolation:sRGB;color-interpolation-filters:linearRGB;solid-color:#000000;solid-opacity:1;vector-effect:none;fill:#a62100;fill-opacity:1;fill-rule:nonzero;stroke:none;stroke-width:1;stroke-linecap:butt;stroke-linejoin:miter;stroke-miterlimit:4;stroke-dasharray:none;stroke-dashoffset:0;stroke-opacity:1;marker:none;color-rendering:auto;image-rendering:auto;shape-rendering:auto;text-rendering:auto;enable-background:accumulate;stop-color:#000000;stop-opacity:1"
     d="m 43.986328,17.591797 -0.06055,23.396484 c -0.23664,1.668743 -1.720497,3.251254 -3.873047,3.810547 -2.69814,0.70106 -5.357177,-0.467421 -5.935546,-2.560547 -0.02594,-0.09389 -0.04167,-0.188779 -0.05859,-0.283203 -0.05945,0.425322 -0.05902,0.855593 0.05859,1.28125 0.578369,2.093126 3.237406,3.26356 5.935546,2.5625 2.15255,-0.559293 3.636407,-2.141804 3.873047,-3.810547 l 0.0625,-24.365234 c 0,-0.0108 -0.0018,-0.02052 -0.002,-0.03125 z M 42,23 c 0,-0.455777 -0.374043,-0.839081 -0.998946,-0.67696 L 28.972358,25.545132 C 28.373851,25.715329 27.996094,26 27.996094,26.807 l -0.0625,18.179328 c -0.0058,1.685429 -1.720497,3.251254 -3.873047,3.810547 -2.69814,0.701061 -5.355234,-0.467421 -5.933594,-2.560547 -0.02649,-0.09588 -0.04346,-0.192627 -0.06055,-0.289062 -0.06048,0.427182 -0.0576,0.859521 0.06055,1.287109 0.57836,2.093126 3.235454,3.263561 5.933594,2.5625 2.15255,-0.559293 3.636407,-2.141803 3.873047,-3.810547 l 0.0625,-19.179687 13.992187,-3.748047 z" />
</svg>

<?xml version="1.0" encoding="UTF-8" standalone="no"?>
<svg
   xmlns:dc="http://purl.org/dc/elements/1.1/"
   xmlns:cc="http://creativecommons.org/ns#"
   xmlns:rdf="http://www.w3.org/1999/02/22-rdf-syntax-ns#"
   xmlns:svg="http://www.w3.org/2000/svg"
   xmlns="http://www.w3.org/2000/svg"
   xmlns:xlink="http://www.w3.org/1999/xlink"
   version="1.1"
   width="64"
   height="64"
   id="svg6333">
  <defs
     id="defs6335">
    <linearGradient
       id="linearGradient872">
      <stop
         style="stop-color:#ffa154;stop-opacity:1"
         offset="0"
         id="stop868" />
      <stop
         style="stop-color:#f37329;stop-opacity:1"
         offset="1"
         id="stop870" />
    </linearGradient>
    <linearGradient
       x1="23.99999"
       y1="4.999989"
       x2="23.99999"
       y2="43"
       id="linearGradient3381-5-4"
       xlink:href="#linearGradient3924-2-2-5-8"
       gradientUnits="userSpaceOnUse"
       gradientTransform="matrix(1.4324324,0,0,1.4362832,-2.378381,-2.4707782)" />
    <linearGradient
       id="linearGradient3924-2-2-5-8">
      <stop
         id="stop3926-9-4-9-6"
         style="stop-color:#ffffff;stop-opacity:1"
         offset="0" />
      <stop
         id="stop3928-9-8-6-5"
         style="stop-color:#ffffff;stop-opacity:0.23529412"
         offset="0.06316455" />
      <stop
         id="stop3930-3-5-1-7"
         style="stop-color:#ffffff;stop-opacity:0.15686275"
         offset="0.95056331" />
      <stop
         id="stop3932-8-0-4-8"
         style="stop-color:#ffffff;stop-opacity:0.39215687"
         offset="1" />
    </linearGradient>
    <radialGradient
       cx="4.9929786"
       cy="43.5"
       r="2.5"
       fx="4.9929786"
       fy="43.5"
       id="radialGradient3337-2-2"
       xlink:href="#linearGradient3688-166-749-4-0-3-8"
       gradientUnits="userSpaceOnUse"
       gradientTransform="matrix(2.003784,0,0,1.4,27.98813,-17.4)" />
    <linearGradient
       id="linearGradient3688-166-749-4-0-3-8">
      <stop
         id="stop2883-4-0-1-8"
         style="stop-color:#181818;stop-opacity:1"
         offset="0" />
      <stop
         id="stop2885-9-2-9-6"
         style="stop-color:#181818;stop-opacity:0"
         offset="1" />
    </linearGradient>
    <radialGradient
       cx="4.9929786"
       cy="43.5"
       r="2.5"
       fx="4.9929786"
       fy="43.5"
       id="radialGradient3339-1-4"
       xlink:href="#linearGradient3688-464-309-9-2-4-2"
       gradientUnits="userSpaceOnUse"
       gradientTransform="matrix(2.003784,0,0,1.4,-20.01187,-104.4)" />
    <linearGradient
       id="linearGradient3688-464-309-9-2-4-2">
      <stop
         id="stop2889-7-9-6-9"
         style="stop-color:#181818;stop-opacity:1"
         offset="0" />
      <stop
         id="stop2891-6-6-1-7"
         style="stop-color:#181818;stop-opacity:0"
         offset="1" />
    </linearGradient>
    <linearGradient
       id="linearGradient3702-501-757-8-4-1-1">
      <stop
         id="stop2895-8-9-9-1"
         style="stop-color:#181818;stop-opacity:0"
         offset="0" />
      <stop
         id="stop2897-7-8-7-7"
         style="stop-color:#181818;stop-opacity:1"
         offset="0.5" />
      <stop
         id="stop2899-4-5-1-5"
         style="stop-color:#181818;stop-opacity:0"
         offset="1" />
    </linearGradient>
    <linearGradient
       x1="25.058096"
       y1="47.027729"
       x2="25.058096"
       y2="39.999443"
       id="linearGradient6394"
       xlink:href="#linearGradient3702-501-757-8-4-1-1"
       gradientUnits="userSpaceOnUse" />
    <linearGradient
       xlink:href="#linearGradient872"
       id="linearGradient856-2-3"
       x1="23.528315"
       y1="6.08318"
       x2="23.528315"
       y2="44.23307"
       gradientUnits="userSpaceOnUse"
       gradientTransform="matrix(1.4102564,0,0,1.4102564,-1.8461748,-3.2564048)" />
  </defs>
  <metadata
     id="metadata6338">
    <rdf:RDF>
      <cc:Work
         rdf:about="">
        <dc:format>image/svg+xml</dc:format>
        <dc:type
           rdf:resource="http://purl.org/dc/dcmitype/StillImage" />
        <dc:title></dc:title>
      </cc:Work>
    </rdf:RDF>
  </metadata>
  <g
     style="opacity:0.6"
     id="g3712-8-2-4-4"
     transform="matrix(1.5789502,0,0,0.7142857,-5.894751,27.928572)">
    <rect
       style="fill:url(#radialGradient3337-2-2);fill-opacity:1;stroke:none"
       id="rect2801-5-5-7-9"
       y="40"
       x="38"
       height="7"
       width="5" />
    <rect
       style="fill:url(#radialGradient3339-1-4);fill-opacity:1;stroke:none"
       id="rect3696-3-0-3-7"
       transform="scale(-1)"
       y="-47"
       x="-10"
       height="7"
       width="5" />
    <rect
       style="fill:url(#linearGradient6394);fill-opacity:1;stroke:none"
       id="rect3700-5-6-8-4"
       y="40"
       x="10"
       height="7.0000005"
       width="28" />
  </g>
  <rect
     style="color:#000000;display:inline;overflow:visible;visibility:visible;opacity:1;fill:url(#linearGradient856-2-3);fill-opacity:1;fill-rule:nonzero;stroke:#a62100;stroke-width:1;stroke-opacity:0.5;marker:none;enable-background:accumulate"
     id="rect5505-21-1-5"
     y="4.5000019"
     x="4.4999986"
     ry="6"
     rx="6"
     height="55"
     width="55" />
  <rect
     style="opacity:0.5;fill:none;stroke:url(#linearGradient3381-5-4);stroke-width:1;stroke-linecap:round;stroke-linejoin:round;stroke-miterlimit:4;stroke-dasharray:none;stroke-dashoffset:0;stroke-opacity:1"
     id="rect6741-5-0-2-3"
     y="5.4287739"
     x="5.4999986"
     ry="5"
     height="53.142479"
     width="53"
     rx="5" />
  <path
     id="path16590-0-7-9"
     style="color:#000000;font-variation-settings:normal;clip-rule:nonzero;display:inline;overflow:visible;visibility:visible;opacity:0.15;isolation:auto;mix-blend-mode:normal;color-interpolation:sRGB;color-interpolation-filters:linearRGB;solid-color:#000000;solid-opacity:1;vector-effect:none;fill:#a62100;fill-opacity:1;fill-rule:nonzero;stroke:none;stroke-width:1;stroke-linecap:butt;stroke-linejoin:miter;stroke-miterlimit:4;stroke-dasharray:none;stroke-dashoffset:0;stroke-opacity:1;marker:none;color-rendering:auto;image-rendering:auto;shape-rendering:auto;text-rendering:auto;enable-background:accumulate;stop-color:#000000;stop-opacity:1"
     d="m 42.736328,16 a 1.0005761,1.0005761 0 0 0 -0.248047,0.03125 l -14.742187,3.810547 a 1.0005761,1.0005761 0 0 0 -0.0098,0.002 c -1.618311,0.43361 -2.738281,1.925232 -2.738281,3.589844 v 18.839844 c -1.034796,-0.260895 -2.140356,-0.370965 -3.3125,-0.06641 -1.553814,0.40373 -2.842919,1.259904 -3.681641,2.376953 -0.838722,1.11705 -1.222323,2.54082 -0.841797,3.917969 0.76241,2.759216 4.035629,4.072984 7.150391,3.263672 2.488817,-0.646665 4.305404,-2.481349 4.611328,-4.638672 a 1.0005761,1.0005761 0 0 0 0.0098,-0.136719 l 0.06055,-18.416015 11.99414,-3.210938 v 12.91211 c -1.034795,-0.260895 -2.140355,-0.370965 -3.3125,-0.06641 -1.553814,0.403729 -2.842919,1.259904 -3.68164,2.376954 -0.838722,1.117049 -1.222323,2.540819 -0.841797,3.917968 0.762574,2.759767 4.037468,4.073013 7.152344,3.263672 2.488817,-0.646665 4.305403,-2.481349 4.611328,-4.638672 a 1.0005761,1.0005761 0 0 0 0.0098,-0.138672 l 0.0625,-24.363281 a 1.0005761,1.0005761 0 0 0 0,-0.002 c 0,-1.272575 -0.872055,-2.407146 -2.083984,-2.611328 A 1.0005761,1.0005761 0 0 0 42.736328,16 Z" />
  <path
     d="m 42.738661,17 -14.74243,3.810544 c -1.10744,0.296727 -1.99898,1.477162 -1.99898,2.623653 v 20.178645 c -1.12296,-0.588018 -2.5652,-0.825776 -4.06041,-0.437276 -2.69814,0.701061 -4.388911,2.966778 -3.81055,5.059903 0.57836,2.093126 3.23632,3.262246 5.93446,2.561185 2.15255,-0.559293 3.63637,-2.1418 3.87301,-3.810544 l 0.0624,-19.179158 13.99281,-3.748076 v 15.556018 c -1.12296,-0.588018 -2.5652,-0.825776 -4.06041,-0.437275 -2.69814,0.70106 -4.38891,2.966777 -3.81055,5.059902 0.57837,2.093126 3.23632,3.262246 5.93446,2.561186 2.15255,-0.559293 3.63637,-2.141801 3.87301,-3.810544 l 0.0624,-24.363997 c 0,-0.859879 -0.53141,-1.503208 -1.24936,-1.624166 z"
     id="path16590-0-7"
     style="color:#000000;font-variation-settings:normal;clip-rule:nonzero;display:inline;overflow:visible;visibility:visible;opacity:0.3;isolation:auto;mix-blend-mode:normal;color-interpolation:sRGB;color-interpolation-filters:linearRGB;solid-color:#000000;solid-opacity:1;vector-effect:none;fill:#a62100;fill-opacity:1;fill-rule:nonzero;stroke:none;stroke-width:1;stroke-linecap:butt;stroke-linejoin:miter;stroke-miterlimit:4;stroke-dasharray:none;stroke-dashoffset:0;stroke-opacity:1;marker:none;color-rendering:auto;image-rendering:auto;shape-rendering:auto;text-rendering:auto;enable-background:accumulate;stop-color:#000000;stop-opacity:1" />
  <path
     d="m 42.738661,15.999524 -14.74243,3.810544 c -1.10744,0.296727 -1.99898,1.477162 -1.99898,2.623653 v 20.178645 c -1.12296,-0.588018 -2.5652,-0.825776 -4.06041,-0.437276 -2.69814,0.701061 -4.388911,2.966778 -3.81055,5.059903 0.57836,2.093126 3.23632,3.262246 5.93446,2.561185 2.15255,-0.559293 3.63637,-2.1418 3.87301,-3.810544 l 0.0624,-19.179158 13.99281,-3.748076 v 15.556018 c -1.12296,-0.588018 -2.5652,-0.825776 -4.06041,-0.437275 -2.69814,0.70106 -4.38891,2.966777 -3.81055,5.059902 0.57837,2.093126 3.23632,3.262246 5.93446,2.561186 2.15255,-0.559293 3.63637,-2.141801 3.87301,-3.810544 l 0.0624,-24.363997 c 0,-0.859879 -0.53141,-1.503208 -1.24936,-1.624166 z"
     id="path16590-0"
     style="color:#000000;clip-rule:nonzero;display:inline;overflow:visible;visibility:visible;opacity:1;isolation:auto;mix-blend-mode:normal;color-interpolation:sRGB;color-interpolation-filters:linearRGB;solid-color:#000000;solid-opacity:1;fill:#ffffff;fill-opacity:1;fill-rule:nonzero;stroke:none;stroke-width:1;stroke-linecap:butt;stroke-linejoin:miter;stroke-miterlimit:4;stroke-dasharray:none;stroke-dashoffset:0;stroke-opacity:1;marker:none;color-rendering:auto;image-rendering:auto;shape-rendering:auto;text-rendering:auto;enable-background:accumulate;font-variation-settings:normal;vector-effect:none;stop-color:#000000;stop-opacity:1" />
  <path
     id="path16590-0-2"
     style="color:#000000;font-variation-settings:normal;clip-rule:nonzero;display:inline;overflow:visible;visibility:visible;opacity:0.15;isolation:auto;mix-blend-mode:normal;color-interpolation:sRGB;color-interpolation-filters:linearRGB;solid-color:#000000;solid-opacity:1;vector-effect:none;fill:#a62100;fill-opacity:1;fill-rule:nonzero;stroke:none;stroke-width:1;stroke-linecap:butt;stroke-linejoin:miter;stroke-miterlimit:4;stroke-dasharray:none;stroke-dashoffset:0;stroke-opacity:1;marker:none;color-rendering:auto;image-rendering:auto;shape-rendering:auto;text-rendering:auto;enable-background:accumulate;stop-color:#000000;stop-opacity:1"
     d="M 43.986328 17.591797 L 43.925781 40.988281 C 43.689141 42.657024 42.205284 44.239535 40.052734 44.798828 C 37.354594 45.499888 34.695557 44.331407 34.117188 42.238281 C 34.091245 42.144395 34.075519 42.049502 34.058594 41.955078 C 33.99914 42.3804 33.999572 42.810671 34.117188 43.236328 C 34.695557 45.329454 37.354594 46.499888 40.052734 45.798828 C 42.205284 45.239535 43.689141 43.657024 43.925781 41.988281 L 43.988281 17.623047 C 43.988281 17.612248 43.986495 17.602527 43.986328 17.591797 z M 41.988281 22.058594 L 27.996094 25.806641 L 27.933594 44.986328 C 27.696954 46.655072 26.213097 48.237582 24.060547 48.796875 C 21.362407 49.497936 18.705313 48.329454 18.126953 46.236328 C 18.100461 46.14045 18.083498 46.043701 18.066406 45.947266 C 18.005925 46.374448 18.008804 46.806787 18.126953 47.234375 C 18.705313 49.327501 21.362407 50.497936 24.060547 49.796875 C 26.213097 49.237582 27.696954 47.655072 27.933594 45.986328 L 27.996094 26.806641 L 41.988281 23.058594 L 41.988281 22.058594 z " />
</svg>
